!!!!SEGMENT: pl-wtm--r-2435_hertz-michal--trzy-kukulki.krn
!!!cenid: 18xx:2382
!!!COM: Hertz, Michał
!!!COM-rismID: pe41023359
!!!CDT: 1844/09/28-~1918
!!!CNT: Polish
!!!OTL: Trzy kukułki
!!!PDT:
!!!AGN:
!!!SMS-siglum: PL-Wtm
!!!SMS-shelfmark: R 2435
!!!SMS-shelfwork: W
!!!SMS-variant:
!!!SMS-altvar:
!!!NIFC-rismSourceID: 1001085435
!!!NIFC-rismChildID: 1001085435
!!!NIFC-islandoraID:
!!!URL-pdf-islandora:
!!!URL-scan:
!!!IIIF:
!!!ONB-nifc:
!!!OMD: Nie za prędko
!!!AIN: 1 empty 1 piano 1 vox
!!!key:
**kern	**kern	**dynam	**kern	**text	**dynam
*group2	*group2	*	*group1	*	*
*part3	*part2	*part2	*part1	*part1	*part1
*staff3	*staff2	*	*staff1	*staff1	*
*Iempty	*Ipiano	*	*Ivox	*	*
*	*I"[Piano]	*	*I"[Voce]	*	*
*clefF4	*clefG2	*	*clefG2	*	*
*k[b-]	*k[b-]	*	*k[b-]	*	*
*f:	*f:	*	*f:	*	*
*M3/4	*M3/4	*	*M3/4	*	*
=1	=1	=1	=1	=1	=1
*	*^	*	*	*	*
*kcancel	*kcancel	*kcancel	*`	*kcancel	*	*
*all\right	*all\right	*all\right	*	*all\right	*	*
!LO:TX:t=P:problem=all\right&colon; global	!LO:TX:t=P:problem=all\right&colon; global	!LO:TX:t=P:problem=all\right&colon; global	!LO:DY:rj	!LO:TX:t=P:problem=all\right&colon; global	!	!
!LO:TX:t=P:problem=poprawki naniesione ołówkiem	!	!	!	!	!	!
(>4.f\	(>16a\LL	2ryy	p	2.r	.	.
.	16b-\	.	.	.	.	.
.	16cc\	.	.	.	.	.
.	16b-\JJ	.	.	.	.	.
.	8a\L)	.	.	.	.	.
!	!	!	!LO:HP:b=2	!	!	!
8A'>/)	8f'>\J 8ff	.	<	.	.	.
(>16c\LL	(<8cc/L	4e\	.	.	.	.
16d\	.	.	.	.	.	.
16e\	8b-/J)	.	.	.	.	.
16c\JJ)	.	.	[	.	.	.
=2	=2	=2	=2	=2	=2	=2
!	!	!	!LO:DY:b=2	!	!	!
(4f\	(>16a\LL	2ryy	p	2.r	.	.
.	16b-\	.	.	.	.	.
.	16cc\	.	.	.	.	.
.	16b-\JJ	.	.	.	.	.
!	!	!	!LO:HP:b=2	!	!	!
8F\L)	16a\LL)	.	<	.	.	.
.	16ff'>\J	.	.	.	.	.
8A\J	8f\J [>8cc	.	.	.	.	.
8.G\L 8.B-	(<16cc/LL]	8.e\L	.	.	.	.
.	16dd/	.	.	.	.	.
.	16cc/	.	.	.	.	.
16F\Jk 16c	16a/JJ)	16f\Jk	[	.	.	.
=3	=3	=3	=3	=3	=3	=3
*2\right	*	*	*	*	*	*
!	!	!	!LO:DY:b=2	!	!	!
[>2.c\	(<16g/LL	[<4e\	p	2.r	.	.
.	16a/	.	.	.	.	.
.	16b-/	.	.	.	.	.
!	!	!	!LO:HP:b=2	!	!	!
.	16a/JJ)	.	<	.	.	.
.	[>2g/	16e\LL]	.	.	.	.
.	.	(>16f\	.	.	.	.
.	.	16e\	.	.	.	.
.	.	16d\JJ	.	.	.	.
.	.	8.e\L)	.	.	.	.
.	.	16f\Jk	.	.	.	.
=4	=4	=4	=4	=4	=4	=4
!LO:TX:b:t=ritenuto.	!	!	!	!	!	!
4c\_>	(>16g/LL]	4..e\	[	2.r	.	.
.	16a/	.	.	.	.	.
.	16b-/	.	.	.	.	.
.	16a/JJ	.	.	.	.	.
!	!	!	!LO:HP:b=2	!	!	!
16c\LL]	8.g/L)	.	>	.	.	.
(>16d\	.	.	.	.	.	.
16c\	.	.	.	.	.	.
16A\JJ)	16cc/Jk	16e\	.	.	.	.
4c\	4e/ 4g	4ryy	]	.	.	.
!!LO:LB:g=original
=5	=5	=5	=5	=5	=5	=5
!	!	!	!LO:DY:rj	!	!	!LO:DY:b
(4f\	(>16a\LL	2ryy	p	8r	.	p
.	16b-\	.	.	.	.	.
!	!	!	!	!	!	!LO:HP:b
.	16cc\	.	.	8a/	Przez	<
.	16b-\JJ	.	.	.	.	.
8F\L)	8a\L)	.	<	8a/	most	.
8A'\J	8f'>\J 8ff	.	.	8cc\	je-	.
!	!	!	!	!	!	!LO:HP:b
(>16c\LL	(<8cc/L	4e\	[ >	8cc\	-cha-	[ >
16d\	.	.	.	.	.	.
16e\	8b-/J)	.	.	8b-\	-łem	.
16c\JJ)	.	.	.	.	.	.
=6	=6	=6	=6	=6	=6	=6
!	!	!	!LO:DY:b=2	!	!	!LO:HP:b
(>4f\	(>16a\LL	2ryy	] p	4a/	z ko-	] <
.	16b-\	.	.	.	.	.
.	16cc\	.	.	.	.	.
.	16b-\JJ	.	.	.	.	.
!	!	!	!LO:HP:b=2	!	!	!
8F\L)	8a\L)	.	<	8a/	-nia	.
8A'>\J	8f'>\J 8ff	.	.	8cc\	u-	.
!	!	!	!LO:HP:b=2	!	!	!LO:HP:b
(>16c\LL	(<8cc/L	4e\	[ >	8cc\	-pa-	[ >
16d\	.	.	.	.	.	.
16e\	8b-/J)	.	.	8b-\	-dłem	.
16c\JJ)	.	.	.	.	.	]]
*	*v	*v	*	*	*	*
=7	=7	=7	=7	=7	=7
!	!	!LO:DY:b=2	!	!	!LO:HP:b
(>4f\	(>(<4a/	] p	4a/	w rze-	<
4B-\)	4d/)) 4g	.	4g/	-ce	.
8r	8r	.	8r	.	.
8A\	8B-/ 8d	.	8d/	le-	.
=8	=8	=8	=8	=8	=8
*	*^	*	*	*	*
!	!	!	!LO:DY:rj	!	!	!
4..G\	(>4f\	[<4B-\ [>4d	sf	4f/	-ża-	.
.	8e/L)	8B-\] 8d]	.	4e/	-łem,	[
.	16r	8r	.	.	.	.
16d\	16e/Jk	.	<	.	.	.
!	!LO:TX:a:t=g:note=zapisane ołówkiem	!	!	!	!	!
4c\	8g/L	4e\	.	4r	.	.
!	!LO:TX:a:t=a:note=zapisane ołówkiem	!	!	!	!	!
.	8a/J	.	[[	.	.	.
!!LO:LB:g=original
=9	=9	=9	=9	=9	=9	=9
!	!	!	!	!	!	!LO:HP:b
(>4f\	(>16a\LL	2ryy	.	8r	.	<
.	16b-\	.	.	.	.	.
.	16cc\	.	.	8a/	ja	.
.	16b-\JJ	.	.	.	.	.
8F\L)	8a\L)	.	.	8a/	tam	.
8A\J	8f'>\J 8ff	.	.	8cc\	le-	.
!	!	!	!	!	!	!LO:HP:b
(>16c\LL	(<8cc/L	4e\	.	8cc\	-ża-	[ >
16d\	.	.	.	.	.	.
16e\	8b-/J)	.	.	8b-\	-łem	]]
16c\JJ)	.	.	.	.	.	.
=10	=10	=10	=10	=10	=10	=10
!	!	!	!	!	!	!LO:HP:b
(>4f\	(>16a\LL	2ryy	.	4a/	przez	<
.	16b-\	.	.	.	.	.
.	16cc\	.	.	.	.	.
.	16b-\JJ	.	.	.	.	.
8F\L)	8a\L)	.	.	8a/	trzy	.
8A'>\J	8f\J 8ff	.	.	8cc\	ty-	.
!	!	!	!	!	!	!LO:HP:b
(>16c\LL	(<8cc/L	4e\	.	8cc\	-go-	[ >
16d\	.	.	.	.	.	.
16e\	8b-/J)	.	.	8b-\	-dnie	]]
16c\JJ)	.	.	.	.	.	.
=11	=11	=11	=11	=11	=11	=11
!LO:TX:t=P:problem=niejasne poprawki	!LO:TX:t=P:problem=niejasne poprawki	!	!	!LO:TX:t=P:problem=takt poprawiony ołówkiem	!	!
16f\LL	8f/ 8a	4ryy	.	(>8aL\	a	.
16e\	.	.	.	.	.	.
16d\	8r	.	.	8b-J)	.	.
16g\JJ	.	.	.	.	.	.
16d\LL	(>[<4f\ 4b-	8a/L	.	(<4a/	nikt	.
16c#X\J	.	.	.	.	.	.
8d\J	.	8b-J	.	.	.	.
8.cn\L	8.f/L]) 8.a	4ryy	.	8g)	.	.
.	.	.	.	8c/	nie	.
16Bn\Jk	16d/Jk 16f 16g	.	.	.	.	.
*	*v	*v	*	*	*	*
=12	=12	=12	=12	=12	=12
!	!LO:TX:a:t=rit	!	!LO:TX:t=P:problem=nuta poprawiona ołówkiem	!	!
(>4B-X\	(<8c/L (<8e (<8g	.	(>4f/	tę-	.
.	8cc/J)	.	.	.	.
(>16A\LL)	4c/) 4f)	.	4f/)	-sknił.	.
16B-\	.	.	.	.	.
16A\	.	.	.	.	.
16G\JJ)	.	.	.	.	.
4A\	4r	.	4r	.	.
!!LO:LB:g=original
=13||	=13||	=13||	=13||	=13||	=13||
*k[b-e-a-d-g-]	*k[b-e-a-d-g-]	*	*k[b-e-a-d-g-]	*	*
*	*^	*	*	*	*
!	!	!	!LO:DY:rj	!	!	!LO:DY:b:rj
(>4d-\	(<16f/LL	2ryy	p	8r	.	p
.	16g-/	.	.	.	.	.
.	16a-/	.	.	8f/	i	.
.	16g-/JJ	.	.	.	.	.
8D-\L)	8f\L)	.	.	8f/	przy-	.
8F'>\J	8d-'>\J 8dd-	.	.	8a-/	-le-	.
(>16A-\LL	(<8a-/L	4c\	.	8a-/	-cia-	.
16B-\	.	.	.	.	.	.
16c\	8g-/J)	.	.	8g-/	-ły	.
16A-\JJ)	.	.	.	.	.	.
=14	=14	=14	=14	=14	=14	=14
(>4d-\	(<16f/LL	2ryy	.	4f/	trzy	.
.	16g-/	.	.	.	.	.
.	16a-/	.	.	.	.	.
.	16g-/JJ	.	.	.	.	.
8D-\L)	8f\L)	.	.	8f/	pstre	.
8F'>\J	8d-'>\J 8dd-	.	.	8a-/	ku-	.
(>16A-\LL	(<8a-/L	4c\	.	8a-/	-kuł-	.
16B-\	.	.	.	.	.	.
16c\	8g-/J)	.	.	8g-/	-ki	.
16A-\JJ)	.	.	.	.	.	.
*	*v	*v	*	*	*	*
=15	=15	=15	=15	=15	=15
(>4d-\	(<(>4f/	.	4f/	śród	.
4G-\)	4B-/)) 4e-	.	4.e-/	ciem-	.
8r	8r	.	.	.	.
8D-\	8G-/ 8B-	.	8B-/	-nej	.
=16	=16	=16	=16	=16	=16
*	*^	*	*	*	*
4..E-\	(>4d-/	[<4G-\ [>4B-	.	4d-/	no-	.
.	8c/L)	8G-\] 8B-]	.	4c/	-cy	.
.	16r	8r	.	.	.	.
16B-\	16c/Jk	.	.	.	.	.
4A-\	(<8f/L	4c\	.	4r	.	.
.	8e-/J)	.	.	.	.	.
!!LO:PB:g=original
=17	=17	=17	=17	=17	=17	=17
(>4d-\	(<16f/LL	2ryy	.	4f/	je-	.
.	16g-/	.	.	.	.	.
.	16a-/	.	.	.	.	.
.	16g-/JJ)	.	.	.	.	.
8D-\L)	8f\L	.	.	8f/	-dna	.
8F'>\J	8d-'>\J 8dd-	.	.	8a-/	ku-	.
(>16A-\LL	(<8a-/L	4c\	.	8a-/	-ka-	.
16B-\	.	.	.	.	.	.
16c\	8g-/J)	.	.	8g-/	-ła	.
16A-\JJ)	.	.	.	.	.	.
=18	=18	=18	=18	=18	=18	=18
!	!	!	!	!LO:TX:t=P:problem=takt poprawiony ołówkiem	!	!
(>4d-\	(16f/LL	2ryy	.	4f/	w koń-	.
.	16g-/	.	.	.	.	.
.	16a-/	.	.	.	.	.
.	16g-/JJ)	.	.	.	.	.
8D-\L)	8f\L|	.	.	8a-/	-cu	.
8F'>\J	8d-'>\J 8dd-	.	.	8dd-/	nóg	.
(>16A-\LL	(<8a-/L	4c\	.	8dd-/	mo-	.
16B-\	.	.	.	.	.	.
16c\	8g-/J)	.	.	8g-/	-ich	.
16A-\JJ)	.	.	.	.	.	.
*	*v	*v	*	*	*	*
=19	=19	=19	=19	=19	=19
!LO:TX:t=P:problem=większość taktu poprawiona ołówkiem	!	!	!	!	!
16d-\LL	8d-/ 8f	.	(>4f/	dru-	.
(>16c\J	.	.	.	.	.
8B-\J	8r	.	.	.	.
.	.	.	.	.	.
16B-\LL)	(<4d-/ (>4g-	.	4g-/)	.	.
16An\	.	.	.	.	.
16G-\	.	.	.	.	.
16B-JJ	.	.	.	.	.
8.A-X\L	8d-/L) 8f)	.	8f/	-ga,	.
.	16r	.	16r	.	.
16Gn\Jk	16B-/Jk 16d- 16e-	.	16e-/	przy	.
=20	=20	=20	=20	=20	=20
*	*^	*	*	*	*
(>4G-X\	(<8e-/L	(<4A-\ (<4c	.	4a-/	gło-	.
.	8a-/J)	.	.	.	.	.
16F\LL)	4A-/) 4d-)	2r)yy	.	4d-/	-wie.	.
(>16G-\	.	.	.	.	.	.
16F\	.	.	.	.	.	.
16E-\JJ	.	.	.	.	.	.
8F\)	4r	.	.	4r	.	.
8r	.	.	.	.	.	.
*	*v	*v	*	*	*	*
!!LO:LB:g=original
=21||	=21||	=21||	=21||	=21||	=21||
*k[b-e-a-d-]	*k[b-e-a-d-]	*	*k[b-e-a-d-]	*	*
!	!	!LO:DY:rj	!	!	!LO:DY:b:rj
(<2A-\ 2c	(>2e-/	p	8r	.	p
.	.	.	8e-/	a	.
.	.	.	8e-/	ta	.
.	.	.	8e-/	zaś	.
4F\)	4f/)	.	8f/	trze-	.
.	.	.	8f/	-cia	.
=22	=22	=22	=22	=22	=22
*	*^	*	*	*	*
(<4.A-\	4.A-/ 4.c 4.e-	2ryy	.	4e-/	pstra	.
.	.	.	.	8e-/	ku-	.
8G\	(>8c/ 8e-	.	.	8e-/	-ku-	.
8F\L	8a-/L	4c\ 4e-	.	8a-/	-łecz-	.
8G\J)	8g/J)	.	.	8g/	-ka	.
=23	=23	=23	=23	=23	=23	=23
*	*	*2\right	*	*	*	*
!	!	!	!LO:HP:b=2	!	!	!
(<4.B-\	4g/	[<2B-\ [<2dn	<	4g/	przy	.
.	4.f/	.	.	4.f/	sa-	.
8An\	.	.	.	.	.	.
4A-X\)	.	8B-\L] 8d]	.	.	.	.
.	8f#X/	8c\J 8d	[	8f#X/	-mem	.
=24	=24	=24	=24	=24	=24	=24
!	!	!	!LO:HP:b=2	!	!	!
(>4G\	(>4g/	(<4Bn\ (>4dn	>	4g/	ser-	.
(>16c\LL)	4e-/)))	2ryy	.	4e-/	-cu,	.
16dn\	.	.	]	.	.	.
16c\	.	.	.	.	.	.
16Bn\JJ	.	.	.	.	.	.
8c\)	4r	.	.	4r	.	.
8r	.	.	.	.	.	.
!!LO:LB:g=original
=25	=25	=25	=25	=25	=25	=25
!	!	!	!LO:DY:rj	!	!	!LO:DY:b:rj
(>2A-\	(>2e-/	2.c-X/	p	4e-/	żo-	p
.	.	.	.	8e-/	-na	.
.	.	.	.	8e-/	przy	.
4F-X\)	4f-X/)	.	.	8f-X/	no-	.
.	.	.	.	8f-/	-gach	.
=26	=26	=26	=26	=26	=26	=26
4A-\	4.c-X/ 4.e-	2ryy	.	4e-/	sios-	.
(>8A--\L	.	.	.	8e-/	-tra	.
8G-X\J)	(>8c-/ 8e-	.	.	8e-/	przy	.
4F-X'>\	8a-/L	[<4c-\	.	8a-/	gło-	.
.	8a--/J)	.	.	8a--/	-wie	.
=27	=27	=27	=27	=27	=27	=27
*	*	*^	*	*	*	*
2E-\	[>2.g-X/	(>8c-\L]	2ryy	.	2g-X/	mat-	.
.	.	8B-\J	.	.	.	.	.
.	.	4c-X\)	.	.	.	.	.
8G-X\L	.	8B-\L	(<8d-/L	.	8d-/	-ka	.
8D-\J	.	8B-\J	8f-X/J)	.	8f-X/	przy	.
=28	=28	=28	=28	=28	=28	=28	=28
2C\	2g-/]	(<4f-X\	2B--\	.	4f-X/	ser-	.
.	.	4e-\)	.	.	4e-/	-cu,	.
8r	8r	4ryy	4ryy	.	8r	.	.
8D-\	8B--/ 8e- 8g-y	.	.	.	8e-/	a	.
*	*	*v	*v	*	*	*	*
!!LO:LB:g=original
=29	=29	=29	=29	=29	=29	=29
(>4.D-\	[>2.g-X/	[<2.B--\ [<2.f-X	.	[>2.f/	mat-	.
4C\	.	.	.	.	.	.
8D-\)	.	.	.	.	.	.
=30	=30	=30	=30	=30	=30	=30
!	!	!	!	!	!	!LO:HP:b
4.D-\	4g-/_>	(<4B--\] (<4f-]	.	4f/]	.	<
.	8B-X/L) 8e-) 8g-]	2ryy	<	(<8e-/L	.	.
8D-\	(>8B--/ 8e- 8f-X	.	.	8f-X/J)	.	.
(>8D-\L	8B--/ 8e- 8g-y	.	.	8g-X/	-ka	.
8C\J)	8B--/J) 8e- 8gn	.	[	8gn/	przy	[
*	*v	*v	*	*	*	*
=31	=31	=31	=31	=31	=31
!	!	!	!	!	!LO:DY:b
[>2.C/	[<2.A-/ [>2.e- [>2.a-	.	[>2.a-/	ser-	f
=32	=32	=32	=32	=32	=32
*^	*^	*	*	*	*
(>8C\L]	4ryy	(>8A-/L] 8e-] 8a-]	4ryy	.	4a-/]	.	.
8E-\J)	.	8A-/J) 8c 8g-X	.	.	.	.	.
[<4G-X\	[>4A-/	[>4e-/	(>16c\LL	.	4e-/	-cu!	.
.	.	.	16d-\	.	.	.	.
.	.	.	16c\	.	.	.	.
.	.	.	16B-\JJ	.	.	.	.
8G-\]	8A-/]	8e-/]	8c\)	.	4r	.	.
8r	8ryy	8r	8ryy	.	.	.	.
*v	*v	*	*	*	*	*	*
!!LO:PB:g=original
=33	=33	=33	=33	=33	=33	=33
!	!	!	!	!	!	!LO:DY:b:rj
(>4d-\	(<16f-X/LL	2ryy	.	4f-X/	żo-	p
.	16g-X/	.	.	.	.	.
.	16a-/	.	.	.	.	.
.	16g-/JJ)	.	.	.	.	.
8D-\L)	8f-\L	.	.	8f-/	-na	.
8F-X'\J	8d-'>\J 8dd-	.	.	8a-/	pła-	.
(16A-\LL	(<8a-/L	4c\	.	8a-/	-ka-	.
16B-\	.	.	.	.	.	.
16c\	8g-X/J)	.	.	8g-X/	-ła	.
16A-\JJ)	.	.	.	.	.	.
=34	=34	=34	=34	=34	=34	=34
(>4d-\	(<16f-X/LL	2ryy	.	4f-X/	przez	.
.	16g-X/	.	.	.	.	.
.	16a-/	.	.	.	.	.
.	16g-/JJ)	.	.	.	.	.
8D-\L)	8f-'>\L	.	.	8f-/	trzy	.
8F-X'>\J	8d-'>\J 8dd-	.	.	8a-/	ty-	.
(>16A-\LL	(<8a-/L	4c\	.	8a-/	-go-	.
16B-\	.	.	.	.	.	.
16c\	8g-/J)	.	.	8g-X/	-dnie,	.
16A-\JJ)	.	.	.	.	.	.
*	*v	*v	*	*	*	*
=35	=35	=35	=35	=35	=35
(>4d-\	((4f-X/	.	4f-X/	sios-	.
4G-X\)	4B--/)) 4e-	.	4e-/	-tra	.
8r	8r	.	8r	.	.
8F-X\	8G-X/ 8B--	.	8B--/	trzy	.
=36	=36	=36	=36	=36	=36
*	*^	*	*	*	*
(<4..E-\	(>4d-/	[<4G-X\ [>4B--	.	4d-/	la-	.
.	8c/L)	8G-\] 8B--]	.	4c/	-ta,	.
.	16r	8rA	.	.	.	.
16B--\	16c/Jk	.	.	.	.	.
4A-\)	(<8f-X/L	4c\	.	4r	.	.
.	8e-/J)	.	.	.	.	.
!!LO:LB:g=original
=37	=37	=37	=37	=37	=37	=37
(4d-\	(16f-X/LL	2ryy	.	8r	.	.
.	16g-X/	.	.	.	.	.
.	16a-/	.	.	8f-X/	a	.
.	16g-/JJ)	.	.	.	.	.
8D-\L)	8f-\L	.	.	8f-/	zaś	.
8F-X\J	8d-'\J 8dd-	.	.	8a-/	ma-	.
(>16A-\LL	(8a-/L	4c\	.	8a-/	-tecz-	.
16B-\	.	.	.	.	.	.
16c\	8g-/J)	.	.	8g-X/	-ka	.
16A-\JJ)	.	.	.	.	.	.
=38	=38	=38	=38	=38	=38	=38
(>4d-\	(<16f-X/LL	2ryy	.	8f-X/	dro-	.
.	16g-X/	.	.	.	.	.
.	16a-/	.	.	8a-/	-ga	.
.	16g-/JJ)	.	.	.	.	.
8D-\L)	8f-\L	.	.	8a-/	pias-	.
8F-X\J	8d-'>\J 8dd-	.	.	8a-/	-tu-	.
(>16A-\LL	(<8a-/L	4c\	.	8a-/	-necz-	.
16B-\	.	.	.	.	.	.
16c\	8g-/J)	.	.	8g-X/	-ka,	.
16A-\JJ)	.	.	.	.	.	.
*	*v	*v	*	*	*	*
=39	=39	=39	=39	=39	=39
!	!	!LO:DY:rj	!	!	!
!	!	!LO:HP:b=2	!	!	!
8d-\L	8f-X/L	p <	8r	.	.
!	!	!	!	!	!LO:HP:b
8c-X\	8d-/J 8f-	.	8f-X/	przez	<
8B--\	(4B--/ 4d- 4f-	.	(<4f-/	ca-	.
8A-\	.	.	.	.	.
8G\	8B--/L 8d- 8g-X	.	8g-X/)	.	.
8F-X\J	8A-/J) 8d- 8a-	[[	8a-/	-łe	.
=40	=40	=40	=40	=40	=40
!	!	!LO:HP:b=2	!	!	!
4E-\	(<4G-X/ (<4d- (>4b--	>	4b--\	ży-	.
4F-X\	4A-/) 4d-) 4a-)	.	4a-/	-cie	[
4r	4r	]	4r	.	.
!!LO:LB:g=original
=41	=41	=41	=41	=41	=41
*	*^	*	*	*	*
*	*	*^	*	*	*	*
!	!	!	!	!LO:DY:rj	!	!	!
8F-X\L	8B-/L 8d- 8g	4ryy	4ryy	p	8r	.	.
!	!	!	!	!LO:HP:b=2	!	!	!
8E-\	8B-/J 8d- 8g	.	.	<	8gn/	przez	.
8Dn\	(>4g/	8dn\L	4B-\	.	(>4g/	ca-	.
8D-X\	.	8e-\J	.	.	.	.	.
8C-X\	8A-\L 8e- 8a-	4ryy	4ryy	.	8a-\)	.	.
!	!LO:TX:a:t=ritenuto.	!	!	!	!	!	!
8BB-\J	8G\J) 8e- 8b-	.	.	[	8b-\	-łe	.
*	*	*v	*v	*	*	*	*
=42	=42	=42	=42	=42	=42	=42
*^	*	*	*	*	*	*
!	!	!	!	!LO:HP:b=2	!	!	!
2G/	(<4BB-\	(>4dd-/	2en\	>	4dd-\	ży-	.
.	4C\)	4cc/)	.	.	4cc\	-cie	.
4r	4ryy	4r	4ryy	]	4r	.	.
*v	*v	*	*	*	*	*	*
=43||	=43||	=43||	=43||	=43||	=43||	=43||
!	!	!	!LO:DY:rj	!LO:TX:a:t=a Tempo	!	!LO:DY:b:rj
(>4f\	(>16a-\LL	2ryy	p	4a-/	żo-	p
.	16b-\	.	.	.	.	.
.	16cc\	.	.	.	.	.
.	16b-\JJ	.	.	.	.	.
8F\L)	8a-\L)	.	.	8a-/	-na	.
8A-'>\J	8f'>\J 8ff	.	.	8cc\	szła	.
(>16c\LL	(>8cc\L	4en\	.	8cc\	za	.
16dn\	.	.	.	.	.	.
16en\	8b-\J)	.	.	8b-\	mną	.
16c\JJ)	.	.	.	.	.	.
=44	=44	=44	=44	=44	=44	=44
(>4f\	(>16a-\LL	2ryy	.	4a-/	przez	.
.	16b-\	.	.	.	.	.
.	16cc\	.	.	.	.	.
.	16b-\JJ	.	.	.	.	.
8F\L)	8a-\L)	.	.	8a-/	rów-	.
8A-'>\J	8f'>\J 8ff	.	.	8cc\	-ne	.
(>16c\LL	(<8cc/L	4en\	.	8cc\	po-	.
16dn\	.	.	.	.	.	.
16en\	8b-/J)	.	.	8b-\	-le	.
16c\JJ)	.	.	.	.	.	.
*	*v	*v	*	*	*	*
!!LO:LB:g=original
=45	=45	=45	=45	=45	=45
(<4f\	(>(<4a-/	.	4a-/	sios-	.
4B-\)	4d-/)) 4g	.	4.g/	-tra	.
8r	8r	.	.	.	.
8A-\	8B-/ 8d-	.	8d-/	stro-	.
=46	=46	=46	=46	=46	=46
*	*^	*	*	*	*
(<4..G\	(>4f/	[<4B-\ [>4d-	.	4f/	-ska-	.
.	8.en/L)	8B-\] 8d-]	.	4en/	-na,	.
.	.	8r	.	.	.	.
16d-\	16e/Jk	.	.	.	.	.
4c\)	(<8a-/L	4en\	.	4r	.	.
.	8g/J)	.	.	.	.	.
=47	=47	=47	=47	=47	=47	=47
(>4f\	(>16a-\LL	2ryy	.	8r	.	.
.	16b-\	.	.	.	.	.
.	16cc\	.	.	8a-/	do	.
.	16b-\JJ	.	.	.	.	.
8F\L)	8a-\L)	.	.	8a-/	drzwi	.
8A-'>\J	8f'>\J 8ff	.	.	8cc\	ko-	.
(>16c\LL	(<8cc/L	4en\	.	8cc\	-ścio-	.
16dn\	.	.	.	.	.	.
16en\	8b-/J)	.	.	8b-\	-ła	.
16c\JJ)	.	.	.	.	.	.
=48	=48	=48	=48	=48	=48	=48
(>4f\	(>16a-\LL	2ryy	.	4a-/	a	.
.	16b-\	.	.	.	.	.
.	16cc\	.	.	.	.	.
.	16b-\JJ	.	.	.	.	.
8F\L)	8a-\L)	.	.	8a-/	mat-	.
8A-'>\J	8f'>\J 8ff	.	.	8cc\	-ka	.
(>16c\LL	(<8cc/L	4en\	.	8cc\	bied-	.
16dn\	.	.	.	.	.	.
16en\	8b-/J)	.	.	8b-\	-na	.
16c\JJ)	.	.	.	.	.	.
!!LO:PB:g=original
=49	=49	=49	=49	=49	=49	=49
(<4f\	[>2.a-/	(<4a-\	.	[>2.a-/	aż	.
4e-\	.	4g\	.	.	.	.
4d-\)	.	4f\)	.	.	.	.
=50	=50	=50	=50	=50	=50	=50
2.c\	(>4a-/]	2.e-\	.	(>4a-/]	.	.
.	4g/	.	.	4g/)	.	.
.	4a-/)	.	.	8a-/	do	.
.	.	.	.	8a-/	mo-	.
=51	=51	=51	=51	=51	=51	=51
*	*	*^	*	*	*	*
*	*	*	*	*	*2\right	*	*
!	!	!	!	!LO:DY:rj	!	!	!
!	!	!	!	!LO:HP:b=2	!	!	!LO:HP:b
4B-\	[>2.dd-/	(<2g/	[<2.e-\	sf <	[>2.dd-\	-gi-	<
4An\	.	.	.	.	.	.	.
4A-X\	.	4a-/)	.	.	.	.	.
*	*	*v	*v	*	*	*	*
=52	=52	=52	=52	=52	=52	=52
2G\	(<4an/ (>4dd-]	2e-\]	.	4dd-\]	.	.
.	4b-/) 4cc)	.	.	4cc\	-ły.	[
8r	8r	4ryy	[	4r	.	.
8B-\	8en\ 8cc	.	.	.	.	.
!!LO:LB:g=original
=53	=53	=53	=53	=53	=53	=53
[>2.A-\	(>8cc/L	[<2.f\	f	2.r	.	.
.	16bn/L	.	.	.	.	.
.	16cc/JJ	.	.	.	.	.
.	4.ff/	.	.	.	.	.
.	16ee-/LL	.	.	.	.	.
.	16dd-/JJ	.	.	.	.	.
=54	=54	=54	=54	=54	=54	=54
2.A-\]	4.cc/	2.f\]	.	2.r	.	.
.	16dd-/LL	.	>	.	.	.
.	16cc/JJ	.	.	.	.	.
.	8.b-/L	.	.	.	.	.
.	16a-/Jk)	.	.	.	.	.
=55	=55	=55	=55	=55	=55	=55
!	!LO:TX:t=P:problem=w takcie pojawiają się skreślenia	!	!LO:DY:rj	!	!	!
4B-\	4a-/	4d-\ 4f	p	2.r	.	.
8.r	8.r	2ryy	<	.	.	.
16B-\	16g/ 16f 16d-	.	.	.	.	.
!	!LO:TX:a:t=ritenuto	!	!	!	!	!
(>8.G\L	(>8.d-\L 8.f 8.b-	.	[	.	.	.
16A-\Jk)	16d-\Jk) 16f 16a-	.	.	.	.	.
=56	=56	=56	=56	=56	=56	=56
2B-\	(>4a-/	2d-\ 2f	sf >	2.r	.	.
.	4g/)	.	]	.	.	.
8.r	8.r	4ryy	.	.	.	.
16c\	16en/ 16a-	.	p	.	.	.
*	*v	*v	*	*	*	*
!!LO:LB:g=original
=57	=57	=57	=57	=57	=57
!	!	!	!	!	!LO:DY:b:rj
(>4f\	(<16f/LL	pp	8r	.	p
.	16g/	.	.	.	.
!	!LO:TX:a:t=a Tempo	!	!	!	!
.	16a-/	.	8f/	a	.
.	16g/JJ)	.	.	.	.
4d-\)	8f/L	.	(>4b-\	mat-	.
.	8b-/	.	.	.	.
(>16c\LL	(<8a-/	.	8a-/)	.	.
16dn\	.	.	.	.	.
16en\	8g/J)	.	8g/	-ka	.
16c\JJ)	.	.	.	.	.
=58	=58	=58	=58	=58	=58
*	*^	*	*	*	*
(>4f\	(>16a-\LL	2ryy	.	[>2.a-/	bie-	.
.	16b-\	.	.	.	.	.
.	16cc\	.	.	.	.	.
.	16b-\JJ	.	.	.	.	.
8F\L)	8a-\L)	.	.	.	.	.
8A-\J	8f'>\J 8ff	.	.	.	.	.
(>16c\LL	(<8cc/L	4en\	.	.	.	.
16dn\	.	.	.	.	.	.
16en\	8a-/J)	.	.	.	.	.
16c\JJ)	.	.	.	.	.	.
*	*v	*v	*	*	*	*
=59	=59	=59	=59	=59	=59
(>4f\	(<16f/LL	.	4a-/]	.	.
.	16g/	.	.	.	.
.	16a-/	.	.	.	.
.	16g/JJ)	.	.	.	.
4d-X\)	8f/L	.	8f/	-dna	.
.	8b-'</	.	8b-\	aż	.
(>16c\LL	(<8a-/	.	8a-/	do	.
16dn\	.	.	.	.	.
16en\	8g/J)	.	8g/	mo-	.
16c\JJ)	.	.	.	.	.
=60	=60	=60	=60	=60	=60
*	*^	*	*	*	*
(>4f\	(>16a-\LL	2ryy	.	(>2.a-/	-gi-	.
.	16b-\	.	.	.	.	.
.	16cc\	.	.	.	.	.
.	16b-\JJ	.	.	.	.	.
8F\L)	8a-\L)	.	.	.	.	.
8A-'>\J	8f'>\J 8ff	.	.	.	.	.
(>16c\LL	(<8cc/L	4en\	.	.	.	.
16dn\	.	.	.	.	.	.
16en\	8a-/J)	.	.	.	.	.
16c\JJ)	.	.	.	.	.	.
*	*v	*v	*	*	*	*
!!LO:LB:g=original
=61	=61	=61	=61	=61	=61
[>4d-\	4.f/	.	4b-\)	.	.
!	!LO:TX:a:t=ritenuto	!	!	!	!
(>16d-\LL]	.	.	4f/	-ły,	.
16c\	.	.	.	.	.
16B-\	8d-/ 8f	.	.	.	.
16e-\JJ)	.	.	.	.	.
(>8.B-\L	(<8.d-/L 8.f	.	16r	.	.
.	.	.	16f/	aż	.
.	.	.	16g/	do	.
16A-\Jk)	16c/Jk) 16f	.	16a-/	mo-	.
=62	=62	=62	=62	=62	=62
(<2.F\	[<2.B-/ (>2.f	.	[>2.cc\	-gi-	.
=63	=63	=63	=63	=63	=63
2G\)	2B-/] 2en)	.	2.cc\_>	.	.
8.r	8.r	.	.	.	.
16C/	16En/ 16B- 16c	.	.	.	.
=64	=64	=64	=64	=64	=64
[<2.FF/	[<2.F/ [<2.A- [>2.c	.	2.cc\_>	.	.
=65	=65	=65	=65	=65	=65
2FF/]	2F/] 2A-] 2c]	.	4cc\]	.	.
.	.	.	4f/	-ły!	.
!LO:N:xstem	!	!	!	!	!
4FF/ 4C	4F</ 4A-<	.	4r	.	.
=66	=66	=66	=66	=66	=66
2.FF;<\	2.C<;>/ 2.F< 2AA-<	.	2.r;>	.	.
==	==	==	==	==	==
*-	*-	*-	*-	*-	*-
!!!system-decoration: g1[{g2}]
!!!RDF**kern: > = above
!!!RDF**kern: < = below
!!!RDF**dynam: > = "dim", fontstyle="italic"
!!!RDF**kern: | = vertical stroke
!!!ENC: Tomasz Grochalski
!!!END: 2021-06-10
!!!EED: Jędrzej Mróz
!!!ESR: 2021-10-11
!!!YEC: Copyright 2022 Narodowy Instytut Fryderyka Chopina (https://polishscores.org)
!!!YEM: License CC-BY-4.0 (https://creativecommons.org/licenses/by/4.0)
